svg/Mapbox-maki/rail-12.svg

<?xml version="1.0" encoding="UTF-8" standalone="no"?>
<!-- Created with Inkscape (http://www.inkscape.org/) -->

<svg
   xmlns:dc="http://purl.org/dc/elements/1.1/"
   xmlns:cc="http://creativecommons.org/ns#"
   xmlns:rdf="http://www.w3.org/1999/02/22-rdf-syntax-ns#"
   xmlns:svg="http://www.w3.org/2000/svg"
   xmlns="http://www.w3.org/2000/svg"
   xmlns:sodipodi="http://sodipodi.sourceforge.net/DTD/sodipodi-0.dtd"
   xmlns:inkscape="http://www.inkscape.org/namespaces/inkscape"
   width="12"
   height="12"
   id="svg4764"
   version="1.1"
   inkscape:version="0.48.2 r9819"
   sodipodi:docname="rail-heavy-12.svg">
  <defs
     id="defs4766" />
  <sodipodi:namedview
     id="base"
     pagecolor="#ffffff"
     bordercolor="#666666"
     borderopacity="1.0"
     inkscape:pageopacity="0.0"
     inkscape:pageshadow="2"
     inkscape:zoom="32"
     inkscape:cx="7.4954652"
     inkscape:cy="5.8167098"
     inkscape:document-units="px"
     inkscape:current-layer="layer1"
     showgrid="true"
     showguides="false"
     inkscape:guide-bbox="true"
     inkscape:window-width="1243"
     inkscape:window-height="976"
     inkscape:window-x="229"
     inkscape:window-y="0"
     inkscape:window-maximized="0">
    <inkscape:grid
       type="xygrid"
       id="grid4772"
       empspacing="2"
       visible="true"
       enabled="true"
       snapvisiblegridlinesonly="true"
       color="#ff00ff"
       opacity="0.1254902"
       empcolor="#ff00ff"
       empopacity="0.25098039" />
    <sodipodi:guide
       orientation="0,1"
       position="2,12"
       id="guide4789" />
    <sodipodi:guide
       orientation="1,0"
       position="12,10"
       id="guide4791" />
    <sodipodi:guide
       orientation="0,1"
       position="10,0"
       id="guide4793" />
    <sodipodi:guide
       orientation="1,0"
       position="0,9"
       id="guide4795" />
    <sodipodi:guide
       orientation="0,1"
       position="5,11"
       id="guide4797" />
    <sodipodi:guide
       orientation="1,0"
       position="11,7"
       id="guide4799" />
    <sodipodi:guide
       orientation="0,1"
       position="9,2"
       id="guide4801" />
    <sodipodi:guide
       orientation="1,0"
       position="2,5"
       id="guide4803" />
  </sodipodi:namedview>
  <metadata
     id="metadata4769">
    <rdf:RDF>
      <cc:Work
         rdf:about="">
        <dc:format>image/svg+xml</dc:format>
        <dc:type
           rdf:resource="http://purl.org/dc/dcmitype/StillImage" />
        <dc:title />
      </cc:Work>
    </rdf:RDF>
  </metadata>
  <g
     inkscape:label="Layer 1"
     inkscape:groupmode="layer"
     id="layer1"
     transform="translate(0,-1040.3622)">
    <path
       style="font-size:medium;font-style:normal;font-variant:normal;font-weight:normal;font-stretch:normal;text-indent:0;text-align:start;text-decoration:none;line-height:normal;letter-spacing:normal;word-spacing:normal;text-transform:none;direction:ltr;block-progression:tb;writing-mode:lr-tb;text-anchor:start;baseline-shift:baseline;color:#000000;fill:#ffffff;fill-opacity:1;stroke:none;stroke-width:2;marker:none;visibility:visible;display:inline;overflow:visible;enable-background:accumulate;font-family:Sans;-inkscape-font-specification:Sans;opacity:0.3"
       d="M 4.65625,0 C 4.4488378,0.022 4.249025,0.1107 4.09375,0.25 l -1.75,1.5 C 2.1298644,1.936 2.0013034,2.2165 2,2.5 L 2,8 c 1.85e-5,0.1844899 0.087984,0.3460165 0.1875,0.5 C 2.0879839,8.6539835 2.0000185,8.8155101 2,9 l 0,1 c 5.24e-5,0.5236 0.4764155,0.9999 1,1 l 3,0 c 0.1844845,-3.5e-5 0.3460107,-0.05674 0.5,-0.15625 C 6.6539893,10.943264 6.8155155,10.999965 7,11 l 3,0 c 0.523584,-10e-5 0.999948,-0.4764 1,-1 L 11,9 C 10.999982,8.8155101 10.912016,8.6539835 10.8125,8.5 10.912016,8.3460165 10.999982,8.1844899 11,8 L 11,2.5 C 11.0024,2.1857 10.846661,1.8741 10.59375,1.6875 l -2,-1.5 C 8.4222735,0.0645 8.2110459,-0.0023 8,0 6.8854167,0 5.7708333,0 4.65625,0 z"
       transform="translate(0,1040.3622)"
       id="path3828"
       inkscape:connector-curvature="0"
       sodipodi:nodetypes="cccccccccccccccccccccc" />
    <path
       style="fill:#444444;fill-opacity:1;stroke:none"
       d="M 4.75,1 3,2.5 3,8 10,8 10,2.5 8,1 z M 5,2 8,2 8,3 5,3 z M 4,4 9,4 9,5 4,5 z M 4,6 5,6 5,7 4,7 z M 8,6 9,6 9,7 8,7 z"
       transform="translate(0,1040.3622)"
       id="path3212"
       inkscape:connector-curvature="0"
       sodipodi:nodetypes="ccccccccccccccccccccccccccc" />
    <path
       style="fill:#444444;fill-opacity:1;stroke:none"
       d="m 4,1048.8622 0,0.5 -1,0 0,1 3,0 0,-1 0,-0.5 z"
       id="path3266"
       inkscape:connector-curvature="0"
       sodipodi:nodetypes="cccccccc" />
    <path
       sodipodi:nodetypes="ccccccc"
       inkscape:connector-curvature="0"
       id="path3268"
       d="m 9,1048.8622 -2,0 c 0,0.5 0,1 0,1.5 l 3,0 0,-1 -1,0 z"
       style="fill:#444444;fill-opacity:1;stroke:none" />
  </g>
</svg>

<svg xmlns="http://www.w3.org/2000/svg" viewBox="0 0 12 12"><g transform="translate(0-1040.36)"><g transform="translate(0 1040.36)"><path d="m4.656 0c-.207.022-.407.111-.563.25l-1.75 1.5c-.214.186-.342.466-.344.75v5.5c0 .184.088.346.188.5-.1.154-.187.316-.188.5v1c0 .524.476 1 1 1h3c.184 0 .346-.057.5-.156.154.1.316.156.5.156h3c.524 0 1-.476 1-1v-1c0-.184-.088-.346-.188-.5.1-.154.187-.316.188-.5v-5.5c.002-.314-.153-.626-.406-.813l-2-1.5c-.171-.123-.383-.19-.594-.188-1.115 0-2.229 0-3.344 0" opacity=".3" color="#000" fill="#fff"/><path d="m4.75 1l-1.75 1.5v5.5h7v-5.5l-2-1.5zm.25 1h3v1h-3zm-1 2h5v1h-5zm0 2h1v1h-1zm4 0h1v1h-1z" fill="#444"/></g><g fill="#444"><path d="m4 1048.86v.5h-1v1h3v-1-.5z"/><path d="m9 1048.86h-2c0 .5 0 1 0 1.5h3v-1h-1z"/></g></g></svg>
